src/Images/facebook_icon.svg

<svg width="11" height="22" viewBox="0 0 11 22" fill="none" xmlns="http://www.w3.org/2000/svg">
<path d="M10.167 7.459H7.01002V5.359C6.99173 5.23521 7.00107 5.10891 7.03736 4.98916C7.07366 4.8694 7.136 4.75917 7.21993 4.66635C7.30385 4.57354 7.40728 4.50044 7.52279 4.45232C7.63829 4.4042 7.76302 4.38223 7.88802 4.388H10.117V0.929001L7.04702 0.917C6.48284 0.876409 5.91655 0.958556 5.38716 1.15778C4.85776 1.35701 4.37782 1.66859 3.98038 2.07107C3.58293 2.47355 3.27743 2.95738 3.08488 3.48924C2.89234 4.0211 2.81733 4.58837 2.86502 5.152V7.459H0.89502V11.026H2.86502V21.121H7.01102V11.026H9.81102L10.167 7.459Z" fill="#F7E135"/>
<defs>
<linearGradient id="paint0_linear_35_47" x1="0.89502" y1="11.014" x2="10.167" y2="11.014" gradientUnits="userSpaceOnUse">
<stop offset="0.121" stop-color="#C2C2C2"/>
<stop offset="0.223" stop-color="#D2D2D2"/>
<stop offset="0.379" stop-color="#E5E5E5"/>
<stop offset="0.539" stop-color="#F1F1F1"/>
<stop offset="0.709" stop-color="#F5F5F5"/>
</linearGradient>
</defs>
</svg>

<svg width="11" height="22" fill="none" xmlns="http://www.w3.org/2000/svg"><path d="M10.167 7.459H7.01v-2.1a.848.848 0 0 1 .878-.971h2.229V.929L7.047.917a3.915 3.915 0 0 0-4.182 4.235v2.307H.895v3.567h1.97v10.095h4.146V11.026h2.8l.356-3.567Z" fill="#F7E135"/></svg>
